X:1
T:James Gibb editions
T:Good morrow, fair ladies - Morley
T:#
%%score [ 1 2 3 ]
L:1/8
Q:1/4=120
M:4/4
K:C
V:1 treble-8 nm="Tenor I" snm="T I"
V:2 treble-8 nm="Tenor II" snm="T II"
V:3 bass nm="Bass" snm="B"
V:1
"^Thomas Morley\n(1557-1602)""^Good morrow, fair ladies" G8 | d4 d2 d2 | BABc d2 B2 | c4 B4 | A8 | %5
w: Good|mor- row, fair|la- dies of the May, where|is my|cru-|
[M:4/4][K:treble-8] B4 A2 d2 | c2 B2 A4 | B8- | B8 | z4 z2 A2 | d4 d2 d2 | BABc d2 B2 | %12
w: el? where is|my sweet cru-|el?||Good|mor- row, fair|La- dies of the May, where|
 e2 d2 d2 ^c2 | d4 f4 | e8 | d4 c4 | B4 (A2 G2 | A8) | G4 g4 | f4 e3 f | g2 d4 a2- | a2 g2 g4- | %22
w: is my sweet cru-|el? fair|Clo-|ris, my|sweet cru\- *||el? O|see where she|comes a Queen,|* a Queen,|
 g4 f4 | e4 z2 e2 | f4 z2 c2 | e4 B3 c | d4 A3 B | c2 d2 e2 ^f2 | (g6 ^f2 | e8) | d2 f4 e2 | %31
w: * a|Queen, she|comes, a|Queen, all in|green, all in|gau- dy green ar-|ray\- *||ing, all in|
 d3 e d2 c2 | B4 A4 | c2 B2 A2 G2 | (G2 ^FE F4) | G4 g4- | g4 f4 |: e6 ^f2 | g4 d4- | d4 e4 | f8 | %41
w: gau- dy green ar-|ray- ing,|all in green ar-|ray\- * * *|ing; O|* how|gai- ly|goes my|* sweet|jew-|
 e2 g2 e2 e2 | ^f2 f2 (g4- | g4 f2 e2) | d4 z2 g2 | e2 e2 ^f2 f2 | (g8- | f2 e2) d4 | %48
w: el. Was ne- ver|such a May\-||ing, Was|ne- ver such a|May\-|* * ing,|
 e2 d2 (d2 ^c2) | d8 | z4 d4 | g6 ^f2 | e4 d4 | (d4 ^c4) | d8 | z4 A4 | d6 c2 | B4 A2 G2 | A8 |1 %59
w: such a May\- *|ing,|Since|May de-|lights de-|cay\- *|ing,|since|May de-|lights first de-|cay-|
 G4 g4- | g4 f4 :|2[M:3/2][K:treble-8][Q:1/4=180] B8 d4 || e8 d4 | c8 B4 || %64
w: ing. O|* how|ing. So|was my|Clo- ris|
[M:4/4][Q:1/4=120] A4 d4 | c8- | c4 B4 | A4 A4 | B8 |] %69
w: sheen brought|home|* and|made May|Queen.|
V:2
 z8 | D8 | G4 G2 G2 | EDE^F G2 E2 | ^F2 (G4 F2) |[M:4/4][K:treble-8] G4 ^F2 B2 | A2 G2 G2 ^F2 | %7
w: |Good|mor- row, fair|la- dies of the May, where|is my *|cru- el? where|is my sweet cru-|
 G4 D4 | G4 G2 G2 | ^FEFG A2 F2 | G4 F2 D2 | G4 ^F2 G2 | A2 (B3 A G2) | ^F4 d4- | d4 c4 | B4 A4- | %16
w: el? Good|mor- row, fair|la- dies of the May, fair|La dies, say|where is my|sweet cru\- * *|el? fair|* Clo-|ris, my|
 A2 G2 (G4- | G4 ^F4) | G8 | d4 c4 | B3 c d2 A2 | c4 B4 | A4 d4- | d4 ^c4 | d4 z2 A2 | c4 z2 G2 | %26
w: * sweet cru\-||el?|See, O|here she comes a|Queen, a|Queen, O|* a|Queen, a|Queen, a|
 B4 ^F3 G | A2 B2 c2 d2 | (e2 d2 d4- | d4 ^c4) | d6 c2 | B3 c B2 A2- | A2 (G4 ^F2) | G4 A2 B2 | %34
w: Queen, all in|gau- dy green ar-|ray\- * *||ing, in|gau- dy green ar\-|* ray\- *|ing, all in|
 c8 | B8 | A4 d4- |: d4 c4 | B6 c2 | d4 G2 c2- | c2 BA B4 | c4 z2 c2 | A2 A2 B2 B2 | c4 AB c2- | %44
w: gau-|dy|green; O|* how|gai- ly|goes my sweet|* bon- ny jew-|el. Was|ne- ver such a|May, such a May,|
 c2 BA B4 | c2 c2 A2 A2 | B2 B2 c4 | A2 c2 c2 B2 | c2 B3 (A G2) | ^F4 A4 | B6 A2 | G4 d4 | %52
w: * such a May-|ing, was ne- ver|such a May-|ing, ne- ver was|such a May\- *|ing, since|May de-|lights first|
 c4 (B4- | B2 A2 G4) | ^F4 A4 | d6 c2 | B4 A4- | A2 G2 (G4- | G4 ^F4) |1 G8 | z4 d4 :|2 %61
w: de- cay\-||ing, since|May de-|lights first|* de- cay\-||ing.|O|
[M:3/2][K:treble-8] G8 B4 || c8 B4 | A8 G4 ||[M:4/4] ^F4 B4- | B4 A4- | A2 A2 G4- | G4 ^F4 | G8 |] %69
w: ing. So|was my|Clo- ris|sheen brought|* home|* for the|* May|Queen.|
V:3
 z8 | z8 | z8 | z4 G,,4 | D,4 D,2 D,2 |[M:4/4] B,,A,,B,,C, D,2 B,,2 | C,2 G,,2 D,4 | G,,8 | %8
w: |||Good|mor- row, fair|La- dies of the May, where|is my cru-|el?|
 z4 G,,4 | D,4 D,2 D,2 | B,,A,,B,,C, D,2 B,,2 | E,4 D,2 G,,2 | C,2 D,2 E,4 | D,4 D,4 | E,6 ^F,2 | %15
w: Good|mor- row, fair|la- dies of the May, say|where is my|sweet, sweet cru-|el? fair|Clo- ris,|
 G,4 C,4 | D,8- | D,8 | G,,8 | z8 | G,4 F,4 | E,3 F, G,4 | D,8 | A,8 | z2 D,2 F,4 | z2 C,2 E,4 | %26
w: my sweet|cru\-||el?||See, lo|where she comes|a|Queen,|a Queen,|she comes,|
 B,,3 C, D,4 | A,,2 A,,2 A,4 | G,8 | A,8 | D,8- | D,8 | D,8 | E,3 D, C,2 B,,2 | A,,8 | G,,8 | %36
w: all in green,|all in green|ar-|ray-|ing,||in|gau- dy green ar-|ray-|ing;|
 D,8 |: A,8 | G,8 | F,4 E,4 | D,8 | C,8 | z4 z2 G,2 | E,2 E,2 F,2 F,2 | (G,8 | C,4 D,4) | %46
w: How|gai-|ly|goes my|jew-|el.|Was|ne- ver such a|May\-||
 G,,2 G,2 E,2 E,2 | F,2 F,2 G,4 | C,2 D,2 E,4 | D,4 D,4 | G,6 ^F,2 | E,4 B,,4 | (C,4 D,4) | E,8 | %54
w: ing, was ne- ver|such a May,|such a May-|ing, since|May de-|lights first|de\- *|cay-|
 D,4 D,4 | D,8 | D,4 D,4 | D,8- | D,8 |1 G,,8 | D,8 :|2[M:3/2] G,,8 G,4 || C,8 D,4 | F,8 G,4 || %64
w: ing, since|May|first de-|cay\-||ing.|How|ing. So|was my|Clo- ris|
[M:4/4] D,4 G,,4 | C,4 C,4 | D,8 | D,8 | G,,8 |] %69
w: sheen brought|home for|the|May|Queen.|

